data/chains/V2/near/near.branded.svg

<svg width="24" height="24" viewBox="0 0 24 24" fill="none" xmlns="http://www.w3.org/2000/svg">
<path d="M18.0282 3.02189L13.8499 9.22179C13.5649 9.65012 14.1215 10.1501 14.5215 9.80012L18.1648 6.22852C18.2715 6.13686 18.4282 6.20019 18.4282 6.35686V17.5367C18.4282 17.6867 18.2282 17.75 18.1432 17.6434L6.17163 2.75689C5.97611 2.51638 5.72861 2.32333 5.44772 2.19227C5.16684 2.06122 4.85989 1.99555 4.54997 2.00023C3.26499 2.00023 2 2.65023 2 4.13688V19.8567C2.002 20.3202 2.15482 20.7705 2.43535 21.1395C2.71586 21.5085 3.10887 21.7762 3.55497 21.9022C4.00106 22.0282 4.47603 22.0053 4.9081 21.8375C5.34017 21.6697 5.70588 21.3658 5.94996 20.9717L10.1216 14.7717C10.4066 14.3434 9.85659 13.8434 9.45659 14.1934L5.83496 17.8367C5.7283 17.9284 5.57163 17.865 5.57163 17.7067V6.55686C5.57163 6.40019 5.77163 6.34352 5.85663 6.45019L17.8065 21.2433C18.2065 21.7367 18.8065 22 19.4282 22C20.7215 22 21.9998 21.3567 21.9998 19.865V4.14355C21.999 3.67668 21.8458 3.22285 21.5636 2.85103C21.2813 2.4792 20.8853 2.2097 20.4358 2.08352C19.9863 1.95733 19.508 1.98135 19.0733 2.15193C18.6388 2.32251 18.2718 2.63031 18.0282 3.02856V3.02189Z" fill="#00EC97"/>
</svg>

<svg xmlns="http://www.w3.org/2000/svg" width="24" height="24" fill="none" viewBox="0 0 24 24">
    <path fill="#00EC97" d="m18.028 3.022-4.178 6.2c-.286.428.271.928.671.578l3.643-3.571c.107-.093.264-.029.264.128v11.179c0 .15-.2.214-.285.107L6.17 2.757A2.05 2.05 0 0 0 4.55 2C3.264 2 2 2.65 2 4.136v15.721a2.136 2.136 0 0 0 3.95 1.114l4.171-6.2c.286-.428-.264-.928-.664-.578l-3.621 3.643c-.107.093-.265.028-.265-.129V6.557c0-.157.2-.214.286-.107l11.95 14.793c.4.493 1 .757 1.621.757C20.721 22 22 21.357 22 19.864V4.144a2.143 2.143 0 0 0-3.972-1.115z"/>
</svg>
